assets/logo.svg

<?xml version="1.0" encoding="UTF-8"?>
<svg fill="none" viewBox="0 0 135 42" xmlns="http://www.w3.org/2000/svg">
<rect transform="rotate(180 21.098 36.169)" x="21.098" y="36.169" width="11.39" height="2.9973" rx="1.4986" fill="#fff"/>
<rect transform="rotate(180 19.301 41.165)" x="19.301" y="41.165" width="7.5931" height="2.9973" rx="1.4986" fill="#fff"/>
<ellipse cx="15.805" cy="15.688" rx="13.688" ry="13.688" stroke="#fff" stroke-width="3.1971"/>
<path d="m11.703 22.382c0-0.5517 0.4473-0.9991 0.9991-0.9991h1.3988c0.4414 0 0.7992-0.3578 0.7992-0.7992 0-0.7367 1.9982-0.7367 1.9982 0 0 0.4414 0.3579 0.7992 0.7993 0.7992h1.3987c0.5518 0 0.9991 0.4474 0.9991 0.9991 0 0.5518-0.4473 0.9991-0.9991 0.9991h-6.3942c-0.5518 0-0.9991-0.4473-0.9991-0.9991z" fill="#fff" stroke="#fff" stroke-width=".59946"/>
<rect transform="rotate(90 16.894 14.189)" x="16.894" y="14.189" width="8.3924" height="1.9982" fill="#fff" stroke="#fff" stroke-width=".59946"/>
<path d="m16.894 13.989c0 0.5518-0.4473 0.9991-0.9991 0.9991-0.3083 0-0.5868 0.1711-0.7591 0.4268-0.1215 0.1803-0.24 0.3186-0.24 0.1727 0-0.2998-0.1998-0.5995-0.5994-0.5995h-0.3997c-0.5517 0-0.9991-0.4473-0.9991-0.9991s0.4474-0.9991 0.9991-0.9991h1.9982c0.5518 0 0.9991 0.4473 0.9991 0.9991z" fill="#fff" stroke="#fff" stroke-width=".59946"/>
<circle cx="15.502" cy="9.1934" r="1.7984" fill="#fff"/>
<path d="m43.145 13.323v17.562h-3.5224v-17.562h3.5224zm10.324 3.4218c1.6605 0 3.0024 0.5284 4.0256 1.5851 1.0232 1.04 1.5348 2.4993 1.5348 4.3779v8.1772h-3.5225v-7.6991c0-1.1071-0.2767-1.9541-0.8303-2.5412-0.5535-0.6039-1.3083-0.9058-2.2644-0.9058-0.9729 0-1.7444 0.3019-2.3147 0.9058-0.5536 0.5871-0.8303 1.4341-0.8303 2.5412v7.6991h-3.5225v-13.939h3.5225v1.7361c0.4696-0.6039 1.0651-1.0735 1.7864-1.409 0.738-0.3523 1.5431-0.5284 2.4154-0.5284zm14.42 3.0947h-2.4406v11.046h-3.5727v-11.046h-1.5851v-2.8934h1.5851v-0.7045c0-1.7109 0.4864-2.9689 1.4593-3.774 0.9728-0.8052 2.4405-1.1826 4.403-1.1323v2.969c-0.8554-0.0168-1.4509 0.1258-1.7864 0.4277-0.3354 0.3019-0.5032 0.8471-0.5032 1.6354v0.5787h2.4406v2.8934zm7.5915 11.272c-1.3418 0-2.5495-0.2935-3.6231-0.8806-1.0735-0.6039-1.9205-1.4509-2.5412-2.5412-0.6038-1.0903-0.9057-2.3483-0.9057-3.7741 0-1.4257 0.3103-2.6837 0.9309-3.774 0.6374-1.0903 1.5012-1.929 2.5915-2.5161 1.0903-0.6038 2.3064-0.9057 3.6483-0.9057s2.558 0.3019 3.6482 0.9057c1.0903 0.5871 1.9458 1.4258 2.5664 2.5161 0.6374 1.0903 0.9561 2.3483 0.9561 3.774 0 1.4258-0.3271 2.6838-0.9813 3.7741-0.6374 1.0903-1.5096 1.9373-2.6166 2.5412-1.0903 0.5871-2.3148 0.8806-3.6735 0.8806zm0-3.0696c0.6374 0 1.2329-0.1509 1.7864-0.4529 0.5703-0.3187 1.0232-0.7883 1.3587-1.4089 0.3355-0.6207 0.5032-1.3755 0.5032-2.2645 0-1.3251-0.3522-2.3399-1.0567-3.0444-0.6878-0.7212-1.5348-1.0819-2.5412-1.0819-1.0065 0-1.8535 0.3607-2.5412 1.0819-0.671 0.7045-1.0065 1.7193-1.0065 3.0444s0.3271 2.3483 0.9813 3.0696c0.6709 0.7045 1.5096 1.0567 2.516 1.0567zm26.285-11.297c1.711 0 3.086 0.5284 4.126 1.5851 1.057 1.04 1.585 2.4993 1.585 4.3779v8.1772h-3.522v-7.6991c0-1.0903-0.277-1.9206-0.831-2.4909-0.553-0.5871-1.308-0.8806-2.264-0.8806-0.9561 0-1.7193 0.2935-2.2896 0.8806-0.5535 0.5703-0.8303 1.4006-0.8303 2.4909v7.6991h-3.5224v-7.6991c0-1.0903-0.2768-1.9206-0.8303-2.4909-0.5536-0.5871-1.3084-0.8806-2.2645-0.8806-0.9728 0-1.7444 0.2935-2.3147 0.8806-0.5536 0.5703-0.8303 1.4006-0.8303 2.4909v7.6991h-3.5225v-13.939h3.5225v1.6858c0.4529-0.5871 1.0316-1.0484 1.736-1.3839 0.7213-0.3354 1.5097-0.5032 2.3651-0.5032 1.0903 0 2.0632 0.2349 2.9186 0.7045 0.8555 0.4529 1.518 1.1071 1.9877 1.9625 0.4529-0.8051 1.1071-1.4509 1.9625-1.9373 0.8722-0.4865 1.8112-0.7297 2.8182-0.7297zm7.267 7.1204c0-1.409 0.277-2.6586 0.831-3.7489 0.57-1.0903 1.333-1.9289 2.289-2.516 0.973-0.5871 2.055-0.8806 3.246-0.8806 1.04 0 1.946 0.2096 2.717 0.629 0.789 0.4193 1.418 0.9477 1.887 1.5851v-1.9877h3.548v13.939h-3.548v-2.038c-0.453 0.6541-1.082 1.1993-1.887 1.6354-0.788 0.4193-1.702 0.629-2.742 0.629-1.174 0-2.248-0.3019-3.221-0.9058-0.956-0.6038-1.719-1.4509-2.289-2.5412-0.554-1.107-0.831-2.3734-0.831-3.7992zm10.97 0.0503c0-0.8554-0.167-1.5851-0.503-2.1889-0.335-0.6206-0.788-1.0903-1.359-1.409-0.57-0.3355-1.182-0.5032-1.836-0.5032s-1.258 0.1593-1.812 0.478c-0.553 0.3187-1.006 0.7884-1.358 1.409-0.336 0.6039-0.504 1.3251-0.504 2.1638s0.168 1.5767 0.504 2.2141c0.352 0.6206 0.805 1.0987 1.358 1.4342 0.57 0.3354 1.174 0.5032 1.812 0.5032 0.654 0 1.266-0.1594 1.836-0.4781 0.571-0.3354 1.024-0.8051 1.359-1.409 0.336-0.6206 0.503-1.3586 0.503-2.2141zm10.209-4.076v6.743c0 0.4697 0.109 0.8135 0.327 1.0316 0.235 0.2013 0.62 0.3019 1.157 0.3019h1.636v2.969h-2.214c-2.969 0-4.454-1.4426-4.454-4.3276v-6.7179h-1.66v-2.8934h1.66v-3.447h3.548v3.447h3.12v2.8934h-3.12z" fill="#fff"/>
</svg>

<svg width="135" height="42" viewBox="0 0 135 42" fill="none" xmlns="http://www.w3.org/2000/svg">
<rect x="21.0977" y="36.1694" width="11.3897" height="2.99729" rx="1.49865" transform="rotate(-180 21.0977 36.1694)" fill="white"/>
<rect x="19.3008" y="41.1646" width="7.59314" height="2.99729" rx="1.49865" transform="rotate(-180 19.3008 41.1646)" fill="white"/>
<ellipse cx="15.8048" cy="15.6876" rx="13.6876" ry="13.6876" stroke="white" stroke-width="3.19711"/>
<path d="M11.7031 22.3816C11.7031 21.8299 12.1504 21.3825 12.7022 21.3825H13.8012H14.101C14.5424 21.3825 14.9002 21.0247 14.9002 20.5833C14.9002 19.8466 16.8984 19.8466 16.8984 20.5833C16.8984 21.0247 17.2563 21.3825 17.6977 21.3825H19.0964C19.6482 21.3825 20.0955 21.8299 20.0955 22.3816C20.0955 22.9334 19.6482 23.3807 19.0964 23.3807H12.7022C12.1504 23.3807 11.7031 22.9334 11.7031 22.3816Z" fill="white" stroke="white" stroke-width="0.599458"/>
<rect x="16.8945" y="14.189" width="8.39242" height="1.9982" transform="rotate(90 16.8945 14.189)" fill="white" stroke="white" stroke-width="0.599458"/>
<path d="M16.8945 13.9892C16.8945 14.541 16.4472 14.9883 15.8954 14.9883C15.5871 14.9883 15.3086 15.1594 15.1363 15.4151C15.0148 15.5954 14.8963 15.7337 14.8963 15.5878C14.8963 15.288 14.6965 14.9883 14.2969 14.9883L13.8972 14.9883C13.3455 14.9883 12.8981 14.541 12.8981 13.9892C12.8981 13.4374 13.3455 12.9901 13.8972 12.9901L15.8954 12.9901C16.4472 12.9901 16.8945 13.4374 16.8945 13.9892Z" fill="white" stroke="white" stroke-width="0.599458"/>
<circle cx="15.5015" cy="9.19339" r="1.79838" fill="white"/>
<path d="M43.1452 13.3233V30.8853H39.6228V13.3233H43.1452ZM53.4691 16.7451C55.1296 16.7451 56.4715 17.2735 57.4947 18.3302C58.5179 19.3702 59.0295 20.8295 59.0295 22.7081V30.8853H55.507V23.1862C55.507 22.0791 55.2303 21.2321 54.6767 20.645C54.1232 20.0411 53.3684 19.7392 52.4123 19.7392C51.4394 19.7392 50.6679 20.0411 50.0976 20.645C49.544 21.2321 49.2673 22.0791 49.2673 23.1862V30.8853H45.7448V16.9464H49.2673V18.6825C49.7369 18.0786 50.3324 17.609 51.0537 17.2735C51.7917 16.9212 52.5968 16.7451 53.4691 16.7451ZM67.8893 19.8398H65.4487V30.8853H61.876V19.8398H60.2909V16.9464H61.876V16.2419C61.876 14.531 62.3624 13.273 63.3353 12.4679C64.3081 11.6627 65.7758 11.2853 67.7383 11.3356V14.3046C66.8829 14.2878 66.2874 14.4304 65.9519 14.7323C65.6165 15.0342 65.4487 15.5794 65.4487 16.3677V16.9464H67.8893V19.8398ZM75.4808 31.1117C74.139 31.1117 72.9313 30.8182 71.8577 30.2311C70.7842 29.6272 69.9372 28.7802 69.3165 27.6899C68.7127 26.5996 68.4108 25.3416 68.4108 23.9158C68.4108 22.4901 68.7211 21.2321 69.3417 20.1418C69.9791 19.0515 70.8429 18.2128 71.9332 17.6257C73.0235 17.0219 74.2396 16.72 75.5815 16.72C76.9234 16.72 78.1395 17.0219 79.2297 17.6257C80.32 18.2128 81.1755 19.0515 81.7961 20.1418C82.4335 21.2321 82.7522 22.4901 82.7522 23.9158C82.7522 25.3416 82.4251 26.5996 81.7709 27.6899C81.1335 28.7802 80.2613 29.6272 79.1543 30.2311C78.064 30.8182 76.8395 31.1117 75.4808 31.1117ZM75.4808 28.0421C76.1182 28.0421 76.7137 27.8912 77.2672 27.5892C77.8375 27.2705 78.2904 26.8009 78.6259 26.1803C78.9614 25.5596 79.1291 24.8048 79.1291 23.9158C79.1291 22.5907 78.7769 21.5759 78.0724 20.8714C77.3846 20.1502 76.5376 19.7895 75.5312 19.7895C74.5247 19.7895 73.6777 20.1502 72.99 20.8714C72.319 21.5759 71.9835 22.5907 71.9835 23.9158C71.9835 25.2409 72.3106 26.2641 72.9648 26.9854C73.6357 27.6899 74.4744 28.0421 75.4808 28.0421ZM101.766 16.7451C103.477 16.7451 104.852 17.2735 105.892 18.3302C106.949 19.3702 107.477 20.8295 107.477 22.7081V30.8853H103.955V23.1862C103.955 22.0959 103.678 21.2656 103.124 20.6953C102.571 20.1082 101.816 19.8147 100.86 19.8147C99.9039 19.8147 99.1407 20.1082 98.5704 20.6953C98.0169 21.2656 97.7401 22.0959 97.7401 23.1862V30.8853H94.2177V23.1862C94.2177 22.0959 93.9409 21.2656 93.3874 20.6953C92.8338 20.1082 92.079 19.8147 91.1229 19.8147C90.1501 19.8147 89.3785 20.1082 88.8082 20.6953C88.2546 21.2656 87.9779 22.0959 87.9779 23.1862V30.8853H84.4554V16.9464H87.9779V18.6322C88.4308 18.0451 89.0095 17.5838 89.7139 17.2483C90.4352 16.9129 91.2236 16.7451 92.079 16.7451C93.1693 16.7451 94.1422 16.98 94.9976 17.4496C95.8531 17.9025 96.5156 18.5567 96.9853 19.4121C97.4382 18.607 98.0924 17.9612 98.9478 17.4748C99.82 16.9883 100.759 16.7451 101.766 16.7451ZM109.033 23.8655C109.033 22.4565 109.31 21.2069 109.864 20.1166C110.434 19.0263 111.197 18.1877 112.153 17.6006C113.126 17.0135 114.208 16.72 115.399 16.72C116.439 16.72 117.345 16.9296 118.116 17.349C118.905 17.7683 119.534 18.2967 120.003 18.9341V16.9464H123.551V30.8853H120.003V28.8473C119.55 29.5014 118.921 30.0466 118.116 30.4827C117.328 30.902 116.414 31.1117 115.374 31.1117C114.2 31.1117 113.126 30.8098 112.153 30.2059C111.197 29.6021 110.434 28.755 109.864 27.6647C109.31 26.5577 109.033 25.2913 109.033 23.8655ZM120.003 23.9158C120.003 23.0604 119.836 22.3307 119.5 21.7269C119.165 21.1063 118.712 20.6366 118.141 20.3179C117.571 19.9824 116.959 19.8147 116.305 19.8147C115.651 19.8147 115.047 19.974 114.493 20.2927C113.94 20.6114 113.487 21.0811 113.135 21.7017C112.799 22.3056 112.631 23.0268 112.631 23.8655C112.631 24.7042 112.799 25.4422 113.135 26.0796C113.487 26.7002 113.94 27.1783 114.493 27.5138C115.063 27.8492 115.667 28.017 116.305 28.017C116.959 28.017 117.571 27.8576 118.141 27.5389C118.712 27.2035 119.165 26.7338 119.5 26.1299C119.836 25.5093 120.003 24.7713 120.003 23.9158ZM130.212 19.8398V26.5828C130.212 27.0525 130.321 27.3963 130.539 27.6144C130.774 27.8157 131.159 27.9163 131.696 27.9163H133.332V30.8853H131.118C128.149 30.8853 126.664 29.4427 126.664 26.5577V19.8398H125.004V16.9464H126.664V13.4994H130.212V16.9464H133.332V19.8398H130.212Z" fill="white"/>
</svg>
